X: 1
T: Kate's Roses
M: 6/8
L: 1/8
R: jig
K: Dmaj
|:FGA ABd|efd e2g|fed B/2c/2de|dAF EDE|
FGA ABd|efd e2g|fed B/2c/2de|fdc d3:|
|:fef a2b|fdc B2c|dBG GBd|AFE E2g|
fef a2b|fdc B2c|dBG B/2c/2dB|AFD D3:|
